icons/solid/globe.svg

<svg width="24" height="24" viewBox="0 0 24 24" fill="none" xmlns="http://www.w3.org/2000/svg">
<path fill-rule="evenodd" clip-rule="evenodd" d="M10.0585 2.18837C6.97343 2.79544 4.39857 4.8212 3.04001 7.55496C2.96172 7.71249 2.88746 7.87238 2.81736 8.03451H7.43338C7.86495 6.23417 8.59472 4.48851 9.62271 2.87311L10.0585 2.18837ZM2.20238 9.98948C2.06962 10.6395 2 11.312 2 12C2 12.688 2.06962 13.3605 2.20238 14.0105C2.29639 13.9813 2.39636 13.9655 2.5 13.9655H7.07878C6.92701 12.6597 6.92701 11.3403 7.07878 10.0345H2.5C2.39635 10.0345 2.29639 10.0187 2.20238 9.98948ZM2.81739 15.9655C4.10438 18.9417 6.79621 21.1698 10.0585 21.8117L9.6227 21.1269C8.59473 19.5115 7.86495 17.7658 7.43338 15.9655H2.81739ZM13.9415 21.8117C17.2038 21.1698 19.8956 18.9417 21.1826 15.9655H16.5666C16.135 17.7658 15.4053 19.5115 14.3773 21.1269L13.9415 21.8117ZM21.7976 14.0105C21.9304 13.3605 22 12.688 22 12C22 11.312 21.9304 10.6395 21.7976 9.98948C21.7036 10.0187 21.6036 10.0345 21.5 10.0345H16.9212C17.073 11.3403 17.073 12.6597 16.9212 13.9655H21.5C21.6036 13.9655 21.7036 13.9813 21.7976 14.0105ZM21.1826 8.03451H16.5666C16.135 6.23417 15.4053 4.48851 14.3773 2.87311L13.9415 2.18832C17.2038 2.83016 19.8956 5.05833 21.1826 8.03451ZM12.69 3.94686C13.5079 5.23224 14.1119 6.6111 14.5019 8.03451H9.49807C9.88807 6.61109 10.4921 5.23224 11.31 3.94686L12 2.86263L12.69 3.94686ZM9.09409 13.9655C8.92191 12.6611 8.92191 11.339 9.09409 10.0345H14.9059C15.0781 11.339 15.0781 12.6611 14.9059 13.9655H9.09409ZM11.31 20.0531C10.4921 18.7678 9.88807 17.3889 9.49807 15.9655H14.5019C14.1119 17.3889 13.5079 18.7678 12.69 20.0531L12 21.1374L11.31 20.0531Z" fill="currentColor"/>
</svg>

<svg width="24" height="24" fill="none" xmlns="http://www.w3.org/2000/svg"><path fill-rule="evenodd" clip-rule="evenodd" d="M10.059 2.188a10.016 10.016 0 00-7.242 5.847h4.616a16.98 16.98 0 012.19-5.162l.436-.685zM2.202 9.99a10.04 10.04 0 000 4.021c.094-.029.194-.044.298-.044h4.579a17.026 17.026 0 010-3.931H2.5c-.104 0-.204-.016-.298-.046zm.615 5.976a10.017 10.017 0 007.242 5.847l-.436-.685a16.98 16.98 0 01-2.19-5.161H2.817zm11.124 5.847a10.017 10.017 0 007.242-5.847h-4.616a16.98 16.98 0 01-2.19 5.162l-.436.685zm7.857-7.802a10.037 10.037 0 000-4.02c-.094.029-.194.044-.298.044h-4.579a17.023 17.023 0 010 3.931H21.5c.104 0 .204.016.298.046zm-.615-5.975h-4.616a16.98 16.98 0 00-2.19-5.162l-.436-.685a10.017 10.017 0 017.242 5.847zM12.69 3.947a14.987 14.987 0 011.812 4.088H9.498c.39-1.424.994-2.803 1.812-4.088L12 2.863l.69 1.084zM9.094 13.966a15.023 15.023 0 010-3.931h5.812a15.02 15.02 0 010 3.93H9.094zm2.216 6.087a14.986 14.986 0 01-1.812-4.088h5.004a14.986 14.986 0 01-1.812 4.088L12 21.137l-.69-1.084z" fill="currentColor"/></svg>
